packages/core/src/svgs/tokens/branded/KUMA.svg

<svg width="24" height="24" viewBox="0 0 24 24" fill="none" xmlns="http://www.w3.org/2000/svg">
<path d="M18.6701 19.07C17.6113 21.0993 9.50003 19.7581 5.91788 19.0406C4.14151 19.6582 5.05322 20.7934 7.04723 21.3228C9.90595 22.0875 16.9584 22.5168 19.4936 20.8639C20.67 20.1111 19.7759 19.2877 18.6701 19.07Z" fill="#94A3B2"/>
<path d="M5.91773 19.0407C6.76473 20.1112 6.90003 20.6464 8.6117 21.0994C11.588 21.911 12.0469 20.6464 12.4644 20.4229C13.0762 21.0699 13.582 21.7757 15.5583 21.2641C16.6172 20.9816 15.7937 20.8523 17.2289 20.8228C18.1111 20.8052 18.2994 20.7464 18.8523 20.4111C18.9994 19.717 19.0288 19.6288 18.6759 19.07C18.6582 19.0407 18.617 18.9818 18.5993 19.0111C18.5817 19.0407 18.5406 18.9641 18.5229 18.9524L18.2994 18.7465C17.6759 17.8878 18.5935 17.6112 19.564 15.2115C19.8463 14.4879 20.0287 13.6821 20.3522 13.0468C20.7404 12.2822 20.9346 11.8234 20.7581 10.5822C20.4758 8.64119 20.7404 7.18244 19.4935 5.94722C18.5699 5.02963 19.1052 4.9708 18.6582 3.82381C17.1994 0.141664 16.0524 3.10031 14.1643 3.54147C12.3174 3.97086 12.8349 4.07086 11.5762 4.22379C10.7998 4.31202 10.8881 4.50024 10.341 4.61788C9.39989 4.81199 9.75281 4.40025 7.38823 4.94139C6.85297 7.25303 7.78821 7.9471 8.05878 8.7C8.447 9.81764 7.55293 10.4235 9.02344 12.5998L7.86467 14.1055C7.40588 14.4879 7.99997 14.2938 7.24119 14.3703C6.98825 13.4292 5.69422 13.2645 5.06483 13.3821C3.26495 13.735 2.34146 16.2996 4.17665 17.4054C5.82362 18.4053 5.39422 17.0231 5.91773 19.0407Z" fill="#131314"/>
<path d="M9.17642 12.0116C9.37053 11.8528 11.4705 8.11185 11.5292 7.95305L11.4998 7.47661C12.5233 7.50601 12.4821 5.47671 14.9703 7.10604C14.9937 7.12368 15.0408 7.10604 15.0526 7.13544C15.0702 7.16485 15.1291 7.16485 15.1466 7.16485C15.9937 7.24132 16.3643 6.82958 17.5583 7.40013C18.5229 7.85894 18.8347 8.12362 20.1287 8.14127C19.5406 5.90021 18.9994 6.37667 18.6289 5.57671C18.2406 4.73558 18.27 2.32395 16.9878 2.45924C16.6054 2.50041 15.7701 3.11802 15.4701 3.32389C14.2938 4.16503 14.2232 3.67681 13.0879 4.2062C12.3292 4.55912 12.7351 4.44148 11.7822 4.55912C11.094 4.64735 11.0528 4.81205 10.5587 4.94145C10.1293 5.05909 9.53523 5.00027 9.02938 5.02968C7.52357 5.10614 7.83533 5.34143 7.74709 5.45907C7.12359 6.24138 8.31176 8.02363 8.50587 8.53536C8.89408 9.52358 8.15294 10.6412 9.17642 12.0116Z" fill="#F9AE5F"/>
<path d="M11.5301 7.93535C11.2772 8.59413 10.6067 8.59413 10.1773 9.87639C9.54789 11.7174 9.18908 10.5529 9.15967 11.994C9.62435 12.9526 10.8126 13.9408 11.9596 14.3996C13.33 14.9467 14.9946 14.7643 16.3357 14.3409C19.1002 13.4703 20.6061 11.6351 20.1296 8.14122C18.8356 8.12357 18.5238 7.85888 17.5592 7.40008C16.3534 6.82953 15.9946 7.22362 15.1475 7.1648C15.13 7.1648 15.0711 7.18245 15.0535 7.13539C15.0417 7.10599 14.9946 7.12362 14.9653 7.10599L13.9535 6.71188C13.9712 6.78247 13.7182 8.68237 11.7184 7.68243C11.5007 7.87652 11.5713 7.40008 11.5301 7.93535Z" fill="#FEFEFE"/>
<path d="M9.11854 20.8523C9.88909 20.0994 9.8185 20.5994 10.2008 19.217L9.56558 19.1406C9.54793 19.0994 9.50676 19.0994 9.48911 19.07C9.9949 18.6701 10.0538 18.9524 10.6361 18.7759C11.589 16.2996 9.69498 16.5643 9.20678 15.7996C10.8891 15.6349 11.4831 17.2584 11.0361 18.7759C11.3302 19.1876 11.4243 18.9524 11.8595 19.3758C12.3477 19.8464 11.9184 19.7582 12.5242 20.0994C12.5419 19.2759 12.2713 18.0818 12.63 17.4349C12.7947 17.6407 12.7066 17.4172 12.7947 17.77C12.8359 17.9642 12.8359 17.9936 12.8536 18.1818C12.883 18.6877 12.6889 19.6994 12.9712 20.1581C12.9419 18.8935 13.9712 19.2288 15.3064 18.6406L15.2358 17.6112C15.4594 17.4172 14.9653 17.3289 15.6828 17.5348C15.9064 16.7113 15.7123 16.6995 15.5476 15.9172C12.4831 16.2113 10.5597 15.7231 9.53617 13.0174C9.10089 13.2645 8.92443 13.6173 8.55386 14.0174C8.33036 14.2527 7.67157 14.8114 7.58333 14.9761C6.8422 16.1231 7.74803 15.9879 6.14224 17.1701C5.97754 19.2877 7.35981 20.3935 9.11854 20.8523Z" fill="#F9AE5F"/>
<path d="M11.5303 7.93535C11.5714 7.40597 11.5009 7.85889 11.7243 7.70006C12.495 8.67061 12.195 8.2118 13.1654 8.75883C12.5244 10.3941 11.695 9.61178 11.0656 9.59998C11.1126 10.7292 11.6185 10.8058 12.2714 11.4116C12.0655 12.2939 12.2891 13.0586 13.3301 12.9881C14.2537 12.9115 14.6242 12.2939 14.9536 11.6587C15.4006 10.7881 15.9359 11.0704 16.4418 10.1999C16.8417 9.52353 17.0064 8.38826 16.3358 7.80006C15.43 8.09417 15.7241 9.31766 13.942 8.8L13.4773 8.59413C13.5831 8.18239 14.2066 8.09417 13.9536 6.72365L14.9654 7.12363C14.6419 6.85894 14.7889 6.95893 14.6536 6.71188C15.1183 6.06486 15.3536 6.30014 15.7712 5.97664C15.0537 5.62372 14.7007 6.18251 14.2655 6.51778C12.4185 5.85899 12.4067 6.87071 11.1715 7.19421C10.6069 7.34126 10.6362 7.19421 10.3833 7.81771L11.5009 7.50595L11.5303 7.93535Z" fill="#020202"/>
<path d="M15.4707 15.8996C15.6354 16.6819 15.8001 16.6526 15.5767 17.4877L15.5885 19.3347C17.0471 18.9524 19.0294 16.1526 19.447 14.1938C18.2882 14.8291 18.3176 15.3878 15.4707 15.8996Z" fill="#FEFEFE"/>
<path d="M4.47123 16.1525C5.18883 16.1937 4.61828 16.1525 5.0653 16.5172C6.62992 17.8466 8.5063 13.7056 5.48293 13.7644C3.3654 13.8232 2.75955 16.7877 5.13002 17.3583C5.94761 17.5525 5.55939 17.4171 5.71822 17.2995C4.97708 16.8289 4.66534 17.123 4.47123 16.1525Z" fill="#F9AE5F"/>
<path d="M10.4531 14.0762C11.512 15.9467 15.4529 16.1055 18.1351 14.6644C19.2232 14.0762 20.6526 12.6175 20.382 11.0822C20.6643 12.141 17.5116 15.5172 13.2236 15.082C11.8708 14.929 11.406 14.4408 10.459 14.0762H10.4531Z" fill="#BC262D"/>
<path d="M12.9584 20.1406L13.0466 20.7464C13.7172 21.0111 15.2465 21.217 15.9053 20.6876C16.3641 19.717 15.1583 19.6112 14.576 19.217C14.6819 19.1288 14.5466 18.9936 15.2641 19.0994L15.2936 18.6289C14.2348 18.7582 14.2936 19.0994 12.8525 18.9524L12.9584 20.1406Z" fill="#FEFEFE"/>
<path d="M13.7769 9.96461C13.271 10.0704 13.3592 10.0999 13.1356 10.5999C12.9591 10.994 12.9004 11.0704 12.7357 11.3822C11.7239 13.1939 14.7591 13.5879 15.1297 9.68819C13.2416 9.43524 14.6238 11.4821 13.271 12.088C13.2533 11.9116 13.6827 10.541 13.7769 9.97051V9.96461Z" fill="#F58B8C"/>
<path d="M8.80664 20.7934C9.4419 20.911 10.7536 21.1169 11.3947 20.8228C12.6005 20.264 11.8241 19.1171 9.96538 19.2347C9.57719 20.6169 9.57719 20.0405 8.80664 20.7934ZM16.4827 20.4405C17.2297 20.4993 17.9532 20.4522 18.5414 20.217C18.6297 19.5523 18.6884 19.5523 18.1826 19.1699C17.4179 18.5818 17.8885 18.8641 17.5414 18.3289C17.1505 18.8317 16.6599 19.2483 16.1003 19.5523L16.4827 20.4346V20.4405Z" fill="#FDFDFD"/>
<path d="M17.5293 2.73566C16.5295 2.51214 15.7236 3.51208 15.459 4.05912C15.8883 4.41203 15.9883 4.17675 16.9471 4.79436C17.8999 5.41198 17.8412 5.61785 18.4058 5.64726C18.3764 4.55908 17.8999 3.52973 17.5236 2.73566H17.5293ZM7.95345 5.45902C7.92404 5.5002 7.68876 5.40021 7.78876 6.25311L8.75929 8.5471C9.1475 8.17064 9.18868 7.51774 9.38279 7.01777C9.63571 6.37074 9.93571 6.03548 10.1887 5.66491C9.66512 5.26493 8.50637 5.2061 7.95345 5.45902Z" fill="#0B0906"/>
<path d="M16.0528 3.89443C16.7352 4.34146 17.3762 4.61791 17.9115 5.00024C17.9115 4.29439 17.4998 3.48269 17.288 2.97095C17.0231 3.01429 16.7725 3.12085 16.5574 3.28161C16.3425 3.44235 16.1693 3.65256 16.0528 3.89443ZM8.70028 7.81773L9.48847 5.77079L8.13561 5.6355C8.11608 6.39955 8.31174 7.15368 8.70028 7.81185V7.81773Z" fill="#FAD995"/>
<path d="M10.6943 6.25312C10.9591 6.94719 11.6943 6.84132 11.8119 6.15312C11.5296 5.94725 10.8297 5.74138 10.6943 6.25312Z" fill="#FDFDFD"/>
<path d="M13.6888 5.7825C14.3123 5.84132 14.624 5.69426 14.6534 5.10606C14.0888 4.81197 13.5947 5.00019 13.6888 5.7825Z" fill="#FBFDFB"/>
</svg>

<svg xmlns="http://www.w3.org/2000/svg" width="24" height="24" fill="none" viewBox="0 0 24 24">
    <path fill="#94A3B2" d="M18.67 19.07c-1.059 2.03-9.17.688-12.752-.03-1.776.618-.865 1.753 1.13 2.283 2.858.764 9.91 1.194 12.446-.46 1.176-.752.282-1.575-.824-1.793"/>
    <path fill="#131314" d="M5.918 19.04c.847 1.071.982 1.606 2.694 2.06 2.976.811 3.435-.454 3.852-.677.612.647 1.118 1.353 3.094.841 1.06-.282.236-.412 1.67-.441.883-.018 1.071-.077 1.624-.412.147-.694.177-.782-.176-1.341-.018-.03-.059-.088-.077-.059-.017.03-.058-.047-.076-.059l-.224-.206c-.623-.858.294-1.135 1.265-3.534.282-.724.465-1.53.788-2.165.388-.765.583-1.224.406-2.465-.282-1.94-.018-3.4-1.264-4.635-.924-.917-.389-.976-.836-2.123C17.2.142 16.052 3.1 14.164 3.54c-1.847.43-1.33.53-2.588.683-.776.088-.688.276-1.235.394-.941.194-.588-.218-2.953.323-.535 2.312.4 3.006.67 3.759.389 1.118-.505 1.724.965 3.9l-1.158 1.505c-.46.383.135.189-.624.265-.253-.94-1.547-1.105-2.176-.988-1.8.353-2.724 2.918-.888 4.023 1.647 1 1.217-.382 1.74 1.636"/>
    <path fill="#F9AE5F" d="M9.176 12.012c.195-.16 2.294-3.9 2.353-4.059l-.03-.476c1.024.029.983-2 3.471-.371.024.018.07 0 .083.03.017.029.076.029.094.029.847.076 1.217-.335 2.411.235.965.459 1.277.724 2.57.741-.587-2.24-1.129-1.764-1.5-2.564-.387-.841-.358-3.253-1.64-3.118-.383.041-1.218.659-1.518.865-1.176.841-1.247.353-2.382.882-.759.353-.353.235-1.306.353-.688.088-.73.253-1.223.382-.43.118-1.024.06-1.53.089-1.505.076-1.194.311-1.282.43-.623.781.565 2.564.759 3.075.388.989-.353 2.106.67 3.477"/>
    <path fill="#FEFEFE" d="M11.53 7.935c-.253.66-.923.66-1.353 1.941-.63 1.841-.988.677-1.017 2.118.464.959 1.653 1.947 2.8 2.406 1.37.547 3.035.364 4.376-.06 2.764-.87 4.27-2.705 3.794-6.199-1.294-.017-1.606-.282-2.57-.74-1.207-.571-1.565-.177-2.412-.236-.018 0-.077.017-.095-.03-.011-.029-.058-.011-.088-.029l-1.011-.394c.017.07-.236 1.97-2.236.97-.217.195-.147-.282-.188.253"/>
    <path fill="#F9AE5F" d="M9.119 20.852c.77-.753.7-.253 1.082-1.635l-.635-.076c-.018-.042-.06-.042-.077-.071.506-.4.565-.118 1.147-.294.953-2.476-.941-2.212-1.43-2.976 1.683-.165 2.277 1.458 1.83 2.976.294.412.388.176.824.6.488.47.058.382.664.723.018-.823-.253-2.017.106-2.664.165.206.077-.018.165.335.04.194.04.224.059.412.029.506-.165 1.517.117 1.976-.03-1.265 1-.93 2.335-1.517l-.07-1.03c.223-.194-.27-.282.447-.076.223-.824.03-.835-.135-1.618-3.065.294-4.988-.194-6.012-2.9-.435.248-.612.6-.982 1-.224.236-.882.794-.97.96-.742 1.146.164 1.01-1.442 2.193-.164 2.118 1.218 3.223 2.977 3.682"/>
    <path fill="#020202" d="M11.53 7.935c.041-.529-.03-.076.194-.235.771.97.471.512 1.441 1.059-.64 1.635-1.47.853-2.1.841.048 1.13.553 1.206 1.206 1.812-.206.882.018 1.647 1.06 1.576.923-.076 1.293-.694 1.623-1.33.447-.87.982-.588 1.488-1.458.4-.676.564-1.812-.106-2.4-.906.294-.612 1.518-2.394 1l-.465-.206c.106-.412.73-.5.477-1.87l1.011.4c-.323-.265-.176-.165-.311-.412.464-.647.7-.412 1.117-.735-.717-.353-1.07.206-1.506.54-1.847-.658-1.858.354-3.094.677-.564.147-.535 0-.788.624l1.118-.312z"/>
    <path fill="#FEFEFE" d="M15.47 15.9c.165.782.33.753.107 1.588l.011 1.847c1.46-.383 3.441-3.182 3.859-5.141-1.159.635-1.13 1.194-3.976 1.706"/>
    <path fill="#F9AE5F" d="M4.471 16.153c.718.04.147 0 .594.364 1.565 1.33 3.441-2.811.418-2.753-2.118.06-2.723 3.024-.353 3.594.818.194.43.06.588-.059-.74-.47-1.053-.176-1.247-1.146"/>
    <path fill="#BC262D" d="M10.453 14.076c1.059 1.87 5 2.03 7.682.588 1.088-.588 2.518-2.046 2.247-3.582.282 1.059-2.87 4.435-7.158 4-1.353-.153-1.818-.641-2.765-1.006z"/>
    <path fill="#FEFEFE" d="m12.958 20.14.089.606c.67.265 2.2.471 2.858-.058.46-.971-.747-1.077-1.329-1.471.106-.088-.03-.223.688-.118l.03-.47c-1.06.13-1 .47-2.442.323z"/>
    <path fill="#F58B8C" d="M13.777 9.965c-.506.105-.418.135-.641.635-.177.394-.236.47-.4.782-1.012 1.812 2.023 2.206 2.394-1.694-1.888-.253-.506 1.794-1.859 2.4-.018-.176.412-1.547.506-2.117z"/>
    <path fill="#FDFDFD" d="M8.807 20.793c.635.118 1.947.324 2.588.03 1.206-.559.43-1.706-1.43-1.588-.388 1.382-.388.806-1.158 1.558m7.676-.352c.747.058 1.47.011 2.058-.224.089-.665.147-.665-.358-1.047-.765-.588-.294-.306-.642-.841-.39.503-.881.92-1.44 1.223l.382.883z"/>
    <path fill="#0B0906" d="M17.53 2.736c-1-.224-1.806.776-2.071 1.323.43.353.53.118 1.488.735.953.618.894.824 1.459.853-.03-1.088-.506-2.117-.882-2.911zM7.952 5.459c-.029.041-.264-.059-.164.794l.97 2.294c.389-.376.43-1.03.624-1.53.253-.646.553-.982.806-1.352-.524-.4-1.683-.459-2.236-.206"/>
    <path fill="#FAD995" d="M16.053 3.894c.682.447 1.323.724 1.858 1.106 0-.706-.411-1.517-.623-2.029a1.67 1.67 0 0 0-1.235.923M8.7 7.818l.788-2.047-1.352-.135c-.02.764.176 1.518.564 2.176z"/>
    <path fill="#FDFDFD" d="M10.694 6.253c.265.694 1 .588 1.118-.1-.282-.206-.982-.412-1.118.1"/>
    <path fill="#FBFDFB" d="M13.689 5.783c.623.058.935-.089.964-.677-.564-.294-1.058-.106-.964.676"/>
</svg>
